src/actions/24/edit-paste.svg

<svg version="1.1" viewBox="0 0 24 24" xmlns="http://www.w3.org/2000/svg">
 <defs>
  <style id="current-color-scheme" type="text/css">.ColorScheme-Text {
        color:#363636;
      }</style>
 </defs>
 <path class="ColorScheme-Text" d="m12 3c-1.1046 0-2 0.89543-2 2h-2c-1.662 0-3 1.338-3 3v9c0 1.662 1.338 3 3 3h8c1.662 0 3-1.338 3-3v-9c0-1.662-1.338-3-3-3v0.00586c-0.02062-6.042e-4 -0.03978-0.00586-0.06055-0.00586h-1.9395c0-0.138-0.0053-0.27625-0.03125-0.40625-0.19615-0.93036-1.0178-1.5956-1.9688-1.5938zm-0.01172 1c0.0039-2.29e-5 0.0078-2.29e-5 0.01172 0 0.414 0 0.75425 0.266 0.90625 0.625 0.05689 0.11716 0.08882 0.24486 0.09375 0.375-6.1e-5 0.88813-1.0716 1.3352-1.7031 0.71094-0.63157-0.62426-0.19666-1.7005 0.69141-1.7109zm-3.9883 2h2v1s-1 0-1 1h6c0-0.75-0.56275-0.953-0.84375-1h-0.15625v-1h2c1.108 0 2 0.892 2 2v9c0 1.108-0.892 2-2 2h-8c-1.108 0-2-0.892-2-2v-9c0-1.108 0.892-2 2-2z" fill="currentColor"/>
</svg>

<svg xmlns="http://www.w3.org/2000/svg" viewBox="0 0 24 24">
    <path fill="currentColor" d="M12 3a2 2 0 0 0-2 2H8C6.338 5 5 6.338 5 8v9c0 1.662 1.338 3 3 3h8c1.662 0 3-1.338 3-3V8c0-1.662-1.338-3-3-3v.006c-.02 0-.04-.006-.06-.006H14c0-.138-.005-.276-.031-.406A2.008 2.008 0 0 0 11.999 3zm-.012 1A1 1 0 0 1 12 4c.414 0 .754.266.906.625A.94.94 0 0 1 13 5c0 .888-1.072 1.335-1.703.71-.632-.623-.197-1.7.691-1.71zM8 6h2v1S9 7 9 8h6c0-.75-.563-.953-.844-1H14V6h2c1.108 0 2 .892 2 2v9c0 1.108-.892 2-2 2H8c-1.108 0-2-.892-2-2V8c0-1.108.892-2 2-2z" style="color:#050505;opacity:.7"/>
</svg>
